packages/dnb-eufemia/assets/icons/broken_chain.svg

<svg width="16" height="16" viewBox="0 0 16 16" fill="none" xmlns="http://www.w3.org/2000/svg">
<path d="M5.6666 3.86666L3.79993 2M4.73326 5.73333H3.79993M7.53326 2.93333V2M9.39993 4.8H12.1999C13.725 4.8 14.9999 6.07493 14.9999 7.59999C14.9999 9.12506 13.725 10.4 12.1999 10.4H9.39993M2.99992 8.17352L1.82002 9.35341C0.741633 10.4318 0.741633 12.2348 1.82002 13.3132C2.89841 14.3916 4.70145 14.3916 5.77984 13.3132L7.09307 12" stroke="black" stroke-width="1.5" stroke-linecap="round" stroke-linejoin="round"/>
</svg>

<svg width="16" height="16" viewBox="0 0 16 16" fill="none" xmlns="http://www.w3.org/2000/svg"><path d="M5.667 3.867 3.8 2m.933 3.733H3.8m3.733-2.8V2M9.4 4.8h2.8c1.525 0 2.8 1.275 2.8 2.8s-1.275 2.8-2.8 2.8H9.4M3 8.174l-1.18 1.18c-1.078 1.078-1.078 2.88 0 3.96 1.078 1.078 2.882 1.078 3.96 0L7.093 12" stroke="#000" stroke-width="1.5" stroke-linecap="round" stroke-linejoin="round"/></svg>
